actions/24/resource-calendar-child.svg

<svg xmlns="http://www.w3.org/2000/svg" viewBox="0 0 24 24" width="24" height="24">
  <defs id="defs3051">
    <style type="text/css" id="current-color-scheme">.ColorScheme-Text {color:#fcfcfc;}</style>
  </defs>
  <g transform="translate(1,1)">
    <path style="fill:currentColor;fill-opacity:1;stroke:none" d="m 6,3 c 0,0 -1,-3e-5 -1,1 0,0 -2,0 -2,2 0,2 0,1 0,1 0,0 0,6 0,9 0,3 3,3 3,3 h 4 V 18 H 6 C 6,18 4,18 4,16 4,14 4,7 4,7 h 14 v 3 h 1 V 7 C 19,7 19,8 19,6 19,4 17,4 17,4 17,2.99997 16,3 16,3 h -3 c 0,0 -1,-3e-5 -1,1 H 10 C 10,2.99997 9,3 9,3 Z M 6,4 H 9 V 5 H 6 Z m 7,0 h 3 V 5 H 13 Z M 6,8 v 2 H 8 V 8 Z m 4,0 v 2 h 2 V 8 Z m 4,0 v 2 h 2 V 8 Z m -8,3 v 2 h 2 v -2 z m 5,0 v 6 c 0,0 0,2.016593 2,2 2,-0.01659 2,0 4,0 2,0 2,-2 2,-2 v -6 h -1 v 1 h -1 v -1 h -4 v 1 h -1 v -1 z m 1,2 h 6 v 4 c 0,0 0,1 -1,1 -1,0 -3,0 -4,0 -1,0 -1,-1 -1,-1 z m 1,1 v 1 h 1 v -1 z m 3,0 v 1 h 1 v -1 z m 0,2 v 1 h 1 v -1 z" class="ColorScheme-Text"/>
  </g>
</svg>

<svg xmlns="http://www.w3.org/2000/svg" viewBox="0 0 24 24" width="24" height="24">
  <defs id="defs3051">
    <style type="text/css" id="current-color-scheme">
      .ColorScheme-Text {
        color:#eff0f1;
      }
      </style>
  </defs>
  <g transform="translate(1,1)">
    <path style="fill:currentColor;fill-opacity:1;stroke:none" d="M 6 3 C 6 3 5 2.99997 5 4 L 3 4 L 3 7 L 3 18 L 3 19 L 10 19 L 10 18 L 4 18 L 4 7 L 18 7 L 18 10 L 19 10 L 19 7 L 19 4 L 17 4 C 17 2.99997 16 3 16 3 L 13 3 C 13 3 12 2.99997 12 4 L 10 4 C 10 2.99997 9 3 9 3 L 6 3 z M 6 4 L 9 4 L 9 5 L 6 5 L 6 4 z M 13 4 L 16 4 L 16 5 L 13 5 L 13 4 z M 6 8 L 6 10 L 8 10 L 8 8 L 6 8 z M 10 8 L 10 10 L 12 10 L 12 8 L 10 8 z M 14 8 L 14 10 L 16 10 L 16 8 L 14 8 z M 6 11 L 6 13 L 8 13 L 8 11 L 6 11 z M 11 11 L 11 19 L 19 19 L 19 11 L 18 11 L 18 12 L 17 12 L 17 11 L 13 11 L 13 12 L 12 12 L 12 11 L 11 11 z M 12 13 L 18 13 L 18 18 L 12 18 L 12 13 z M 13 14 L 13 15 L 14 15 L 14 14 L 13 14 z M 16 14 L 16 15 L 17 15 L 17 14 L 16 14 z M 16 16 L 16 17 L 17 17 L 17 16 L 16 16 z " class="ColorScheme-Text"/>
  </g>
</svg>
